src/images/clients/bmw.svg

<svg width="84" height="85" viewBox="0 0 84 85" fill="none" xmlns="http://www.w3.org/2000/svg">
<path d="M66.8889 42.0401C66.8889 55.7949 55.7548 66.929 42 66.929V42.0401H66.8889ZM42 17.1512V42.0401H17.1111C17.1111 28.2853 28.2453 17.1512 42 17.1512Z" fill="black"/>
<path d="M42 17.1512C55.7548 17.1512 66.8889 28.2853 66.8889 42.0401H42V17.1512ZM17.1111 42.0401H42V66.929C28.2453 66.929 17.1111 55.7949 17.1111 42.0401Z" fill="white"/>
<path d="M42 17.1512L42 18.5158C54.9701 18.5158 65.5243 29.0675 65.5243 42.04L66.8889 42.0401C66.8889 28.2952 55.7449 17.1512 42 17.1512ZM42 65.5643C29.0299 65.5643 18.4757 55.0126 18.4757 42.04L17.1111 42.0401C17.1111 55.785 28.2551 66.929 42 66.929M42 0.0400391C18.8047 0.0400391 0 18.8447 0 42.04C0 65.2354 18.8047 84.04 42 84.04C65.1953 84.04 84 65.2354 84 42.04C84 18.8447 65.1953 0.0400391 42 0.0400391ZM81.2688 42.04C81.2688 63.7265 63.689 81.3089 42 81.3089C20.311 81.3089 2.73119 63.7265 2.73119 42.04C2.73119 20.3535 20.3135 2.77122 42 2.77122C63.6865 2.77122 81.2688 20.3535 81.2688 42.04Z" fill="black"/>
<path d="M24.0515 21.7784C25.3936 20.3745 26.1535 18.7525 24.8113 17.204C24.0811 16.3636 22.8549 16.1798 21.8384 16.5939L21.7373 16.6331L21.7693 16.5449C21.9198 16.1455 22.0161 14.8714 20.9231 13.9918C20.3902 13.5631 19.7216 13.4038 19.0456 13.4724C17.7849 13.5998 16.8153 14.4549 14.1755 17.3779C13.3786 18.26 12.219 19.6517 11.5233 20.5533L18.7742 27.3843C21.1772 24.7431 22.1567 23.7606 24.0515 21.7784ZM14.59 20.1074C16.0505 18.3335 17.6023 16.7237 18.3055 16.0867C18.5275 15.8858 18.7693 15.6849 19.0629 15.6065C19.539 15.4766 20.03 15.8123 20.141 16.2974C20.2521 16.785 19.9437 17.2481 19.6007 17.6303C18.8285 18.4952 15.9962 21.4378 15.9962 21.4378L14.59 20.1074ZM17.4296 22.7829C17.4296 22.7829 20.1879 19.8869 21.0884 18.9607C21.4461 18.5932 21.6756 18.3702 21.9223 18.2502C22.2406 18.0958 22.5884 18.064 22.8993 18.2698C23.2052 18.4732 23.3458 18.8235 23.2694 19.1714C23.1781 19.5855 22.8376 19.98 22.5564 20.2814C22.1764 20.6856 18.905 24.1624 18.9001 24.1673L17.4296 22.7829ZM42.8289 13.6317L45.1505 8.46677L45.2985 8.00859L45.2566 8.48637L45.5008 15.3884C46.315 15.4644 47.1563 15.5771 47.9852 15.7143L47.6077 5.49229C46.4482 5.36489 45.2936 5.27423 44.1389 5.22523L41.8519 10.863L41.7705 11.282L41.6891 10.863L39.4045 5.22523C38.2499 5.27423 37.0952 5.36489 35.9357 5.49229L35.5582 15.7143C36.3872 15.5771 37.2285 15.4668 38.0426 15.3884L38.2869 8.48637L38.2449 8.00859L38.393 8.46677L40.7146 13.6317H42.8289ZM62.1096 24.3167C62.6795 24.9244 63.5011 25.9044 63.9625 26.4998L72.4593 21.1438C72.035 20.5925 71.359 19.7546 70.8532 19.1641L65.4724 22.6972L65.1048 23.0108L65.3786 22.6139L67.7545 17.9047L66.0743 16.2362L61.33 18.5957L60.9303 18.8676L61.2486 18.5026L64.8087 13.1612C64.182 12.632 63.5801 12.1469 62.8128 11.5588L57.4196 19.9898C58.103 20.5117 59.0035 21.2786 59.5783 21.8004L64.6557 19.1837L64.9814 18.946L64.7421 19.2694L62.1096 24.3167Z" fill="black"/>
</svg>

<svg xmlns="http://www.w3.org/2000/svg" width="84" height="85" fill="none" viewBox="0 0 84 85"><path fill="#000" d="M66.889 42.04C66.889 55.795 55.755 66.93 42 66.93V42.04h24.889ZM42 17.151v24.89H17.111c0-13.756 11.134-24.89 24.889-24.89Z"/><path fill="#fff" d="M42 17.151c13.755 0 24.889 11.134 24.889 24.89H42V17.15Zm-24.889 24.89H42v24.888c-13.755 0-24.889-11.134-24.889-24.889Z"/><path fill="#000" d="M42 17.151v1.365c12.97 0 23.524 10.552 23.524 23.524h1.365c0-13.745-11.144-24.889-24.889-24.889Zm0 48.413c-12.97 0-23.524-10.551-23.524-23.524H17.11C17.111 55.785 28.255 66.93 42 66.93M42 .04c-23.195 0-42 18.805-42 42s18.805 42 42 42 42-18.805 42-42-18.805-42-42-42Zm39.269 42c0 21.687-17.58 39.269-39.269 39.269S2.731 63.727 2.731 42.04C2.731 20.354 20.314 2.771 42 2.771c21.687 0 39.269 17.582 39.269 39.269Z"/><path fill="#000" d="M24.052 21.778c1.342-1.403 2.102-3.025.76-4.574-.73-.84-1.957-1.024-2.974-.61l-.1.04.031-.09c.15-.399.247-1.673-.846-2.552-.533-.429-1.201-.588-1.877-.52-1.261.128-2.23.983-4.87 3.906a63.289 63.289 0 0 0-2.653 3.175l7.251 6.831c2.403-2.64 3.383-3.623 5.277-5.606Zm-9.462-1.67c1.46-1.774 3.012-3.384 3.715-4.021.223-.201.464-.402.758-.48.476-.13.967.205 1.078.69.111.488-.197.951-.54 1.333-.773.865-3.605 3.808-3.605 3.808l-1.406-1.33Zm2.84 2.675s2.758-2.896 3.658-3.822c.358-.368.588-.59.834-.71.319-.155.666-.187.977.019a.852.852 0 0 1 .37.901c-.09.415-.431.809-.713 1.11L18.9 24.167l-1.47-1.384Zm25.399-9.151 2.322-5.165.147-.458-.041.477.244 6.902a35.62 35.62 0 0 1 2.484.326l-.377-10.222a51.873 51.873 0 0 0-3.47-.267l-2.286 5.638-.081.419-.082-.419-2.285-5.638c-1.154.05-2.309.14-3.468.267l-.378 10.222a37.14 37.14 0 0 1 2.485-.326l.244-6.902-.042-.477.148.458 2.322 5.165h2.114Zm19.28 10.685c.57.607 1.392 1.587 1.853 2.183l8.497-5.356c-.424-.551-1.1-1.39-1.606-1.98l-5.38 3.533-.368.314.274-.397 2.375-4.71-1.68-1.668-4.744 2.36-.4.272.319-.365 3.56-5.342a51.792 51.792 0 0 0-1.996-1.602l-5.393 8.43a37.951 37.951 0 0 1 2.158 1.811l5.078-2.616.325-.238-.239.323-2.632 5.048Z"/></svg>
